!!!COM: Beethoven, Ludwig van
!!!CDT: 1770///-1827///
!!!OTL: Piano Sonata no. 17 in D minor
!!!OTP: tempest
!!!OPS: 31
!!!ONM: 2
!!!OMV: 3
!!!OMD: Allegretto
!!!AGN: Sonata form
**kern	**kern	**dynam
*staff2	*staff1	*staff1/2
*>[I,A,A,B]	*>[I,A,A,B]	*>[I,A,A,B]
*>norep[I,A,B]	*>norep[I,A,B]	*>norep[I,A,B]
*>I	*>I	*>I
*clefF4	*clefG2	*clefG2
*k[b-]	*k[b-]	*k[b-]
*d:	*d:	*d:
*M3/8	*M3/8	*M3/8
*MM116	*MM116	*MM116
16r	(16a\LL	p
8r	16ff\	.
.	16ee\JJ	.
=1!|:	=1!|:	=1!|:
*>A	*>A	*>A
16D/LL	8dd'\)	.
16A/	.	.
16d/	16r	.
16f/JJ	(16a\LL	.
8A\	16ff\	.
.	16ee\JJ	.
=2	=2	=2
16D/LL	8dd'\)	.
16A/	.	.
16d/	16r	.
16f/JJ	(16a\LL	.
8A\	16ff\	.
.	16ee\JJ	.
=3	=3	=3
16D/LL	8dd'\)	.
16A/	.	.
16d/	16r	.
16f/JJ	(16a\LL	.
8A\	16ff\	.
.	16dd\JJ	.
=4	=4	=4
16AA/LL	8ee'\)	.
16A/	.	.
16c#/	16r	.
16e/JJ	(16a\LL	.
8A\	16gg\	.
.	16ff\JJ	.
=5	=5	=5
16AA/LL	8ee'\)	.
16A/	.	.
16c#/	16r	.
16e/JJ	(16a\LL	.
8A\	16gg\	.
.	16ff\JJ	.
=6	=6	=6
16AA/LL	8ee'\)	.
16A/	.	.
16c#/	16r	.
16e/JJ	(16a\LL	.
8A\	16gg\	.
.	16ff\JJ	.
=7	=7	=7
16AA/LL	8ee'\)	.
16A/	.	.
16c#/	16r	.
16e/JJ	(16a\LL	.
8A\	16gg\	.
.	16ee\JJ	.
=8	=8	=8
16D/LL	8ff'\)	.
16A/	.	.
16d/	16r	.
16f/JJ	(16dd\LL	.
8A\	16aa\	.
.	16ddd\JJ	.
=9	=9	=9
*^	*	*
16G/LL	4.G\	8bb-'\)	.
[16d/JJ	.	.	.
4d/] 4g/	.	16r	.
.	.	(16b-\LL	.
.	.	16dd\	.
.	.	16bb-\JJ	.
=10	=10	=10	=10
16E-/LL	4.E-\	8gg'\)	.
[16B-/JJ	.	.	.
4B-/] 4e-/	.	16r	.
.	.	(16g\LL	.
.	.	16b-\	.
.	.	16gg\JJ	.
=11	=11	=11	=11
16C#/LL	4.C#\	8een'\)	.
[16A/JJ	.	.	.
4A/] 4c#/	.	16r	.
.	.	(16e\LL	.
.	.	16a\	.
.	.	16ee\JJ	.
=12	=12	=12	=12
16D/LL	4.D\	8ff'\)	.
[16A/JJ	.	.	.
4A/] 4d/	.	16r	.
.	.	(16f\LL	.
.	.	16a\	.
.	.	16ff\JJ	.
=13	=13	=13	=13
16AA/LL	4.AA\	8dd'\)	p
&([16F/JJ&)	.	.	.
4F/] 4A/	.	16r	.
.	.	16d\LL	.
.	.	(16a\	.
.	.	16dd\JJ	.
*v	*v	*	*
=14	=14	=14
16AA/LL	8cc#'\)	.
16E/	.	.
16G/	16r	.
[16A/JJ	16c#/LL	.
8E/ 8G/ 8A/]	16a/	.
.	16cc#/JJ	.
=15	=15	=15
16DD\LL	8dd\	f
16D\	.	.
16F\	8r	.
16A\JJ	.	.
&(8d'\&)	(16f/LL	.
.	16a/JJ	.
=16	=16	=16
4.r	16dd\LL	.
.	16ff\	.
.	16aa\	.
.	16ff\	.
.	16ddd\	.
.	16aa\JJ	.
=17	=17	=17
*^	*	*
16G/LL	4.G\	8bb-'\)	p
[16d/JJ	.	.	.
4d/] 4g/	.	16r	.
.	.	(16b-\LL	.
.	.	16dd\	.
.	.	16bb-\JJ	.
=18	=18	=18	=18
16E-/LL	4.E-\	8gg'\)	.
[16B-/JJ	.	.	.
4B-/] 4e-/	.	16r	.
.	.	(16g\LL	.
.	.	16b-\	.
.	.	16gg\JJ	>
=19	=19	=19	=19
16C#/LL	4.C#\	8een'\)	.
[16A/JJ	.	.	.
4A/] 4c#/	.	16r	.
.	.	(16e\LL	.
.	.	16a\	.
.	.	16ee\JJ	.
=20	=20	=20	=20
16D/LL	4.D\	8ff'\)	.
[16A/JJ	.	.	.
4A/] 4d/	.	16r	.
.	.	(16f\LL	.
.	.	16a\	.
.	.	16ff\JJ	.
=21	=21	=21	=21
16AA/LL	4.AA\	8dd'\)	p
[16F/JJ	.	.	.
4F/] 4A/	.	16r	.
.	.	(16d\LL	.
.	.	16a\	.
.	.	16dd\JJ	.
*v	*v	*	*
=22	=22	=22
16AA/LL	8cc#'\)	.
16E/	.	.
16G/	16r	.
[16A/JJ	(16c#/LL	.
8E/ 8G/ 8A/]	16a/	.
.	16cc#/JJ	.
=23	=23	=23
16D\LL	16dd'\)	f
16F\	32r	.
.	32a\	.
16A\	(4aa\	.
16d\JJ	.	.
8r	.	.
=24	=24	=24
4.r	16gg#\LL	>
.	16ggn\	.
.	16ff#\	.
.	16ffn\	.
.	16ee\	.
.	16ee-\JJ	.
=25	=25	=25
*^	*	*
16AA/LL	4.AA\	8dd'\)	p
[16F/JJ	.	.	.
4F/] 4A/	.	16r	.
.	.	(16d\LL	.
.	.	16a\	.
.	.	16dd\JJ	.
*v	*v	*	*
=26	=26	=26
16AA/LL	8cc#'\)	.
16E/	.	.
16G/	16r	.
[16A/JJ	(16c#/LL	.
8E/ 8G/ 8A/]	16a/	.
.	16cc#/JJ	.
=27	=27	=27
16D\LL	16dd\)	f
16F\	16dd\	.
16A\	(4ddd\	.
16d\JJ	.	.
8r	.	.
=28	=28	=28
4.r	16ccc#\LL	>
.	16cccn\	.
.	16bbn\	.
.	16bb-\	.
.	16aa\	.
.	16gg#\JJ	.
=29	=29	=29
*^	*	*
16AA/LL	4.AA\	8aa'\)	p
[16F/JJ	.	.	.
4F'/] 4A'/	.	16r	.
.	.	(16d\LL	.
.	.	16a\	.
.	.	16dd\JJ	.
*v	*v	*	*
=30	=30	=30
16AA\LL	8cc#'\)	.
16E\	.	.
&(16G\JJ&)	16r	.
16AAA/LL	(16cc#\LL	f
16FF/	16aa\	.
16EE/JJ	16ccc#\JJ	.
=31	=31	=31
&(8DD'/&)	16ddd'\)	.
*	*clefF4	*clefF4
.	(16D\LL	.
16r	16F\	.
(16AAA/LL	16A\JJ	.
16FF/	8d'\)	.
16EE/JJ	.	.
=32	=32	=32
8DD'/)	16r	.
.	16D\LL	.
16r	16F\	.
(16AAA/LL	16A\JJ	.
16FF/	&(8d'\&)	.
16EE/JJ	.	.
=33	=33	=33
8DD'/)	16r	.
.	16D\LL	.
16r	16F\	.
(16AAA/LL	16A\JJ	.
16FF/	&(8d'\&)	.
16DD/JJ)	.	.
=34	=34	=34
4.GGG/ 4.GG/	16D\LL	.
.	16F\	.
.	16Bn\	.
.	16d\JJ	.
*	*clefG2	*clefG2
.	16f\LL	.
.	16bn\JJ	.
=35	=35	=35
8CC'\ 8C'\L	16cn\LL	f
.	16cc\	.
8E'\	16e\	.
.	16ee\	.
8G'\J	16g\	.
.	16gg\JJ	.
=36	=36	=36
8c'\L	16cc\LL	.
.	16ccc\	.
8e'\	16ee\	.
.	16eee\	.
8c'\J	16cc\	.
.	16ccc\JJ	.
=37	=37	=37
8G'\L	16g\LL	.
.	16gg\	.
8E'\	16e\	.
.	16ee\	.
8G'\J	16g\	.
.	16gg\JJ	.
=38	=38	=38
(8E\L	16e\LL	.
.	16ee\	.
16C\Jk)	16c\	.
(16GGG/LL	16cc\JJ	.
16EE/	8r	.
16DD/JJ	.	.
*	*clefF4	*clefF4
=39	=39	=39
8CC'/)	16r	.
.	16C\LL	.
16r	16E\	.
(16GGG/LL	16G\JJ	.
16EE/	&(8c'\&)	.
16DD/JJ	.	.
=40	=40	=40
8CC'/)	16r	.
.	16C\LL	.
16r	16E\	.
(16GGG/LL	16G\JJ	.
16EE/	&(8c'\&)	.
16DD/JJ	.	.
=41	=41	=41
8CC'/)	16r	.
.	16C\LL	.
16r	16E\	.
(16GGG/LL	16G\JJ	.
16EE/	&(8c'\&)	.
16CC/JJ)	.	.
=42	=42	=42
4.FFF/ 4.FF/	16D\ 16A\LL	.
.	16d\	.
.	16D\ 16A\	.
.	16d\	.
.	16D#\ 16A\	.
.	16d#\JJ	.
=43	=43	=43
8EE/ 8E/	8G#'\ 8e'\	.
*	*clefG2	*clefG2
16Bn\ 16dn\LL	(8ff\L	f
16e\	.	.
16G#\	8ee\J)	.
16e\JJ	.	.
=44	=44	=44
16Bn\ 16d\LL	(8ff\L	.
16e\	.	.
16G#\	8ee\J)	.
16e\	.	.
16B\ 16d\	(8ff\	.
16e\JJ	.	.
=45	=45	=45
16G#\LL	8ee\)	.
16e\	.	.
16Bn\ 16d\	(8ff\L	.
16e\	.	.
16G#\	8ee\J)	.
16e\JJ	.	.
=46	=46	=46
16Bn\ 16d\LL	(8ff\L	.
16e\	.	.
16G#\	8ee\J)	.
16e\	.	.
16B\ 16d\	(8ff\	.
16e\JJ	.	.
=47	=47	=47
16G#\LL	8ee'\)	.
16e\	.	.
16Bn\ 16d\	[4ff\	.
16e\	.	.
16G#\	.	.
16e\JJ	.	.
=48	=48	=48
16Bn\ 16d\LL	8ff\L]	.
16e\	.	.
16G#\	8ee'\	.
16e\	.	.
16B\ 16d\	8dd'\J	.
16e\JJ	.	.
=49	=49	=49
16A\LL	(8cc\L	p
16e\	.	.
16c\	8bn\)	.
16e\	.	.
16A\	8a'\J	.
16e\JJ	.	.
=50	=50	=50
16E\LL	8g#'\L	.
16d\	.	.
16Bn\	8a'\	.
16d\	.	.
16E\	8bn'\J	.
16d\JJ	.	.
=51	=51	=51
16A\ 16c\LL	8a'\	.
16e\	.	.
16Bn\ 16d\	(16ff\LL	f
16e\	16fff\	.
16G#\	16ee\	.
16e\JJ	16eee\JJ	.
=52	=52	=52
16Bn\ 16d\LL	16ff\LL	.
16e\	16fff\	.
16G#\	16ee\	.
16e\	16eee\	.
16B\ 16d\	16ff\	.
16e\JJ	16fff\JJ	.
=53	=53	=53
16G#\LL	16ee\LL	.
16e\	16eee\	.
16Bn\ 16d\	16ff\	.
16e\	16fff\	.
16G#\	16ee\	.
16e\JJ	16eee\JJ	.
=54	=54	=54
16Bn\ 16d\LL	16ff\LL	.
16e\	16fff\	.
16G#\	16ee\	.
16e\	16eee\	.
16B\ 16d\	16ff\	.
16e\JJ	16fff\JJ)	.
=55	=55	=55
16G#\LL	8ee'\ 8eee'\	.
16e\	.	.
16Bn\ 16d\	[4ff\ [4fff\	.
16e\	.	.
16G#\	.	.
16e\JJ	.	.
=56	=56	=56
16Bn\ 16d\LL	8ff\] 8fff\L]	.
16e\	.	.
16G#\	8ee'\ 8eee'\	.
16e\	.	.
16B\ 16d\	8dd'\ 8ddd'\J	.
16e\JJ	.	.
=57	=57	=57
16A\LL	8cc'\ 8ccc'\L	p
16e\	.	.
16c\	8bn'\ 8bbn'\	.
16e\	.	.
16A\	8a'\ 8aa'\J	.
16e\JJ	.	.
=58	=58	=58
16E\LL	8g#'\ 8gg#'\L	.
16d\	.	.
16Bn\	8a'\ 8aa'\	.
16d\	.	.
16E\	8bn'\ 8bbn'\J	.
16d\JJ	.	.
=59	=59	=59
16F\LL	8a\ (8aa\L	.
16c\	.	.
16A\	8ff\ 8fff\)	.
16c\	.	.
16F\	8ff'\ 8fff'\J	.
16c\JJ	.	.
=60	=60	=60
16D\LL	8ff'\ 8fff'\L	.
16B-\	.	.
16F\	8ee'\ 8eee'\	.
16B-\	.	.
16D\	8dd'\ 8ddd'\J	.
16B-\JJ	.	.
=61	=61	=61
16E\LL	8cc'\ 8ccc'\L	.
16c\	.	.
16A\	8bn'\ 8bbn'\	.
16c\	.	.
16E\	8a'\ 8aa'\J	.
16c\JJ	.	.
=62	=62	=62
16D\LL	8g#'\ 8gg#'\L	.
16Bn\	.	.
16E\	8a'\ 8aa'\	.
16B\	.	.
16D\	8bn'\ 8bbn'\J	.
16B\JJ	.	.
=63	=63	=63
16C\LL	8a\ (8aa\L	.
16A\	.	.
16BBn\	8ff\ 8fff\)	f
16A\	.	.
16C\	8ff'\ 8fff'\J	.
16A\JJ	.	.
=64	=64	=64
16D\LL	8ff'\ 8fff'\L	.
16A\ 16Bn\	.	.
16C\	8ee'\ 8eee'\	.
16A\ 16B\	.	.
16D\	8dd'\ 8ddd'\J	.
16A\ 16B\JJ	.	.
=65	=65	=65
16E\LL	8cc'\ 8ccc'\L	.
16A\ 16c\	.	.
16D#\	8bn'\ 8bbn'\	.
16A\ 16c\	.	.
16E\	8a'\ 8aa'\J	.
16A\ 16c\JJ	.	.
=66	=66	=66
16E\LL	8g#'\ 8gg#'\L	.
16Bn\ 16d\	.	.
16E\	8a'\ 8aa'\	.
16A\ 16c\	.	.
16E\	8bn'\ 8bbn'\J	.
16G#\ 16B\JJ	.	.
=67	=67	=67
16AA\LL	8a\ 8aa\	p
16c\	.	.
16A\	8r	.
16c\	.	.
16E\	(16a\LL	.
16c\JJ	16aa\JJ	.
=68	=68	=68
16AA\LL	8cc'\)	.
16c\	.	.
16A\	8r	.
(16c\	.	.
16E\	16cc\LL	.
16c\JJ)	16ccc\JJ	.
=69	=69	=69
16AA\LL	8ee'\	.
16c\	.	.
16A\	8r	.
16c\	.	.
16E\	16ee\LL	.
16c\JJ	16eee\JJ	.
=70	=70	=70
16AA\LL	8cc'\	.
16c\	.	.
16A\	8r	.
16c\	.	.
16E\	(16cc\LL	.
16c\JJ	16ccc\JJ)	.
=71	=71	=71
*	*^	*
16EE\LL	8r	[4.a\	.
16c\	.	.	.
16A\	[4aa/	.	.
16c\	.	.	.
16E\	.	.	.
16c\JJ	.	.	.
*	*v	*v	*
=72	=72	=72
16EE\LL	8a\] (8aa\L]	.
16d\	.	.
16Bn\	8bn\ 8bbn\)	.
16d\	.	.
16E\	8g#'\ 8gg#'\J	.
16d\JJ	.	.
=73	=73	=73
16AA\LL	8a'\ 8aa'\	.
16c\	.	.
16A\	16r	.
16c\	(16a\LL	p
16E\	16aa\	.
16c\JJ	16a\JJ	.
=74	=74	=74
16AA\LL	8cc'\)	.
16c\	.	.
16A\	16r	.
16c\	(16cc\LL	.
16E\	16ccc\	.
16c\JJ	16cc\JJ	.
=75	=75	=75
16AA\LL	8ee'\)	.
16c\	.	.
16A\	16r	.
16c\	(16ee\LL	.
16E\	16eee\	.
16c\JJ	16ee\JJ	.
=76	=76	=76
16AA\LL	8cc'\)	.
16c\	.	.
16A\	16r	.
16c\	16cc\LL	.
16E\	16ccc\	.
16c\JJ	16cc\JJ	.
=77	=77	=77
*	*^	*
16EE\LL	8r	[4.a\	.
16c\	.	.	.
16A\	[4aa/	.	.
16c\	.	.	.
16E\	.	.	.
16c\JJ	.	.	.
*	*v	*v	*
=78	=78	=78
16EE\LL	8a\] (8aa\L]	.
16d\	.	.
16Bn\	8bn\ 8bbn\)	.
16d\	.	.
16E\	8g#'\ 8gg#'\J	.
16d\JJ	.	.
=79	=79	=79
16AA\LL	8a\ (8aa\L	<
16A\	.	.
16G#\	8bn\ 8bbn\	.
16A\	.	.
16Gn\	8cc#\ 8ccc#\J	.
16A\JJ	.	.
=80	=80	=80
16F\LL	8dd\ 8ddd\L	>
16A\	.	.
16E\	8ccn\ 8cccn\	.
16A\	.	.
16D#\	8bn\ 8bbn\J)	.
16A\JJ	.	.
=81	=81	=81
16E\LL	8cc\ (8ccc\L	.
16A\	.	.
16Bn\	8g#\ 8gg#\	.
16E\	.	.
16c\	8a\ 8aa\J)	.
16E\JJ	.	.
=82	=82	=82
16d\LL	8bn\ (8bbn\L	.
16E\	.	.
16c\	8f#\ 8ff#\	.
16E\	.	.
16Bn\	8g#\ 8gg#\J)	.
16E\JJ	.	.
=83	=83	=83
16AA\LL	16a\LL	<
16A\	16aa\	.
16G#\	16bn\	.
16A\	16bbn\	.
16Gn\	16cc#\	.
16A\JJ	16ccc#\JJ	.
=84	=84	=84
16F\LL	16dd\LL	>
16A\	16ddd\	.
16E\	16ccn\	.
16A\	16cccn\	.
16D#\	16bn\	.
16A\JJ	16bbn\JJ	.
=85	=85	=85
16E\LL	16cc\LL	.
16A\	16ccc\	.
16f\	16g#\	.
16E\	16gg#\	.
16e\	16a\	.
16E\JJ	16aa\JJ	.
=86	=86	=86
16d\LL	16bn\LL	.
16E\	16bbn\	.
16c\	16f#\	.
16E\	16ff#\	.
16Bn\	16g#\	.
16E\JJ	16gg#\JJ	.
=87	=87	=87
16AA\LL	16a\LL	.
16A\	16aa\	.
16G#\	16g#\	.
16A\	16a\	.
16AA\	16aa\	.
16A\JJ	16a\JJ	.
=88	=88	=88
16G\LL	16g#\LL	.
16A\	16a\	.
16AA\	16aa\	.
16A\	16a\	.
16G\	16g#\	.
16A\JJ	16a\JJ	.
=89	=89	=89
16AA\LL	16aa\LL	.
16A\	16a\	.
16G#\	16g#\	.
16A\	16a\	.
16AA\	16aa\	.
16A\JJ	16a\JJ	.
=90	=90	=90
16G#\LL	16g#\LL	.
16A\	16a\	.
16AA\	16aa\	.
16A\	16a\	.
16G#\	16g#\	.
16A\JJ	16a\JJ	.
*clefG2	*	*
=91	=91	=91
8c#/ 8e/ 8gn/	(16b-\LL	p
.	16a\	.
8r	16b-\	.
.	16a\	.
8r	16b-\	.
.	16a\JJ	.
=92	=92	=92
4.r	16b-\LL	.
.	16a\	.
.	16b-\	.
.	16a\	.
.	16b-\	.
.	16a\JJ	.
=93	=93	=93
4.r	16b-\LL	.
.	16a\	.
.	16b-\	.
.	16a\	.
.	16cc#\	.
.	16a\JJ	.
=94	=94	=94
4.r	16dd\LL	.
.	16a\	.
.	16ee\	.
.	16a\	.
.	16ff\	.
.	16ee\JJ)	.
*clefG2	*	*
=95:|!	=95:|!	=95:|!
*>B	*>B	*>B
*^	*	*
16f#/LL	4.f#\	8ee-'\	p
16a/	.	.	.
&(16ccn/JJ&)	.	16r	.
16r	.	(16ee-\LL	.
8r	.	16aa\	.
.	.	16bb-\JJ	.
=96	=96	=96	=96
16f#/LL	4.f#\	8ccc'\)	.
16a/	.	.	.
&(16cc/JJ&)	.	16r	.
16r	.	(16ee-\LL	.
8r	.	16aa\	.
.	.	16bb-\JJ	.
=97	=97	=97	=97
16f#/LL	4.f#\	8ccc'\)	.
&(16a/&)	.	.	.
16cc/JJ	.	16r	.
16r	.	(16ee-\LL	.
8r	.	16aa\	.
.	.	16bb-\JJ	.
=98	=98	=98	=98
16f#/LL	4.f#\	8ccc'\)	.
16a/	.	.	.
&(16cc/JJ&)	.	16r	.
16r	.	(16dd\LL	.
8r	.	16ccc\	.
.	.	16aa\JJ	.
*v	*v	*	*
*clefF4	*	*
=99	=99	=99
16GGG/LL	8bb-'\)	f
16BBB-/	.	.
*	*clefF4	*clefF4
16DD/	16r	.
[16GG/JJ	(16BB-\LL	.
8DD/ 8GG/]	16D\	.
.	16G\JJ	.
=100	=100	=100
16GG/LL	8B-'\)	.
16BB-/	.	.
*	*clefG2	*clefG2
16D/	16r	.
[16G/JJ	(16B-/LL	.
8D/ 8G/]	16d/	.
.	16g/JJ	.
*clefG2	*	*
=101	=101	=101
16G/LL	8b-'/)	.
16B-/	.	.
16d/	16r	.
[16g/JJ	(16b-\LL	.
8B-/ 8d/ 8g/]	16dd\	.
.	16gg\JJ	.
=102	=102	=102
16g\LL	8bb-'\)	.
16b-\	.	.
16dd\	16r	.
16cc\	(16ff\LL	.
16bn\	16bbn\	.
&(16a\JJ&)	16ccc\JJ	.
=103	=103	=103
*^	*	*
16g#/LL	4.g#\	8ddd'\)	p
16bn/	.	.	.
&(16dd/JJ&)	.	16r	.
16r	.	(16ff\LL	.
8r	.	16bbn\	.
.	.	16ccc\JJ	.
=104	=104	=104	=104
(16g#/LL	4.g#\	8ddd'\)	.
16bn/	.	.	.
16dd/JJ)	.	16r	.
16r	.	16ff\LL	.
8r	.	16bbn\	.
.	.	16ccc\JJ	.
=105	=105	=105	=105
16g#/LL	4.g#\	8ddd'\	.
16bn/	.	.	.
&(16dd/JJ&)	.	16r	.
16r	.	(16ff\LL	.
8r	.	16bbn\	.
.	.	16ccc\JJ	.
=106	=106	=106	=106
16g#/LL	4.g#\	8ddd'\)	.
16bn/	.	.	.
&(16dd/JJ&)	.	16r	.
16r	.	(16ee\LL	.
8r	.	16ddd\	.
.	.	16bbn\JJ	.
*v	*v	*	*
*clefF4	*	*
=107	=107	=107
16AAA/LL	8ccc'\)	f
16CC/	.	.
*	*clefF4	*clefF4
16EE/	16r	.
[16AA/JJ	(16C\LL	.
8CC/ 8EE/ 8AA/]	16E\	.
.	16A\JJ	.
=108	=108	=108
16AA/LL	8c'\)	.
16C/	.	.
*	*clefG2	*clefG2
16E/	16r	.
[16A/JJ	(16c/LL	.
8C\ 8E\ 8A\]	16e/	.
.	16a/JJ	.
*clefG2	*	*
=109	=109	=109
16A/LL	8cc'\)	.
16c/	.	.
16e/	16r	.
[16a/JJ	(16cc\LL	.
8a/_	16ee\	.
.	16aa\JJ	.
=110	=110	=110
16A/ 16c/ 16e/ 16a/]	8ccc'\)	>
*clefF4	*	*
(16AA/LL	.	.
16BB-/	8r	.
16GG/	.	.
16E/	8r	.
16D/JJ)	.	.
=111	=111	=111
8C#'\	16r	.
.	(16B-/LL	p
16r	16e/	.
(16C#\LL	16g/J	.
16G\	8b-/J)	.
16F\JJ	.	.
=112	=112	=112
8E'\)	16r	.
.	16c#/LL	.
16r	16g/	.
(16E\LL	16b-/J	.
16B-\	&(8cc#/J&)	.
16A\JJ	.	.
=113	=113	=113
8G'\)	16r	.
.	16b-\LL	.
16r	16cc#\	.
(16G\LL	16ee\J	.
16e\	&(8gg\J&)	.
16d\JJ	.	.
=114	=114	=114
8c#'\)	16r	.
.	16ee\LL	.
16r	16bb-\	.
(16FF/LL	16aa\JJ	.
16AA/	8r	.
16GG/JJ	.	.
=115	=115	=115
8FF'/)	16r	.
.	16d\LL	.
16r	16f\	.
(16FF\LL	16a\J	.
16F'\	&(8dd'\J&)	.
16E\JJ	.	.
=116	=116	=116
8D'\)	16r	.
.	16f\LL	.
16r	16a\	.
(16D\LL	16dd\J	.
16A\	&(8ff'\J&)	.
16G\JJ	.	.
=117	=117	=117
8F'\)	16r	.
.	16a\LL	.
16r	16dd\	.
16F\LL	16ff\J	.
16f\	&(8aa'\J&)	.
16e\JJ	.	.
*clefG2	*	*
=118	=118	=118
16d/LL	8r	.
16f/	.	.
&(16a-/JJ&)	16r	.
16r	(16aa-\LL	.
8r	16dd\	.
.	16ee-\JJ	.
*clefF4	*	*
=119	=119	=119
16r	8ff'\)	.
16DD/LL	.	.
16FF/	16r	.
16AA-/J	(16ff\LL	.
&(8BBn'/J&)	16bn\	.
.	16cc\JJ	.
=120	=120	=120
16r	8dd'\)	.
16FF/LL	.	.
16AA-/	16r	.
16BBn/J	(16dd/LL	.
&(8D'/J&)	16f/	.
.	16g/JJ	.
=121	=121	=121
16r	8a-'/)	.
16BBn\LL	.	.
16D\	16r	.
16F\J	(16a-/LL	.
&(8A-'\J&)	16d/	.
.	16e-/JJ	.
=122	=122	=122
16r	8f'/)	.
16A-\LL	.	.
16G\	16r	.
16F\	(16gg\LL	f
16E-\	16cc\	.
&(16D\JJ&)	16dd\JJ	.
=123	=123	=123
16C/LL	8ee-'\)	.
16EE-/	.	.
16GG/	16r	.
&(16C/JJ&)	(16ee-\LL	.
8r	16g\	.
.	16bn\JJ	.
=124	=124	=124
16r	8cc'\)	.
16GG/LL	.	.
16C/	16r	.
&(16E-/JJ&)	(16cc/LL	.
8r	16e-/	.
.	16f/JJ	.
=125	=125	=125
16r	8g'/)	.
(16C\LL	.	.
16E-\	16r	.
16G\JJ)	16g/LL	.
8r	16c/	.
.	16d/JJ	.
=126	=126	=126
8r	(16e-/LL	.
.	16c/	.
16r	16G/JJ)	.
(16CC/LL	16r	.
16C/	8r	.
16BB-/JJ	.	.
=127	=127	=127
8AAn'/)	16r	.
.	16G-/LL	.
16r	16c/	.
(16AA/LL	16e-/J	.
16E-/	&(8g-'/J&)	.
16D-/JJ	.	.
=128	=128	=128
8C'/)	16r	.
.	16A/LL	.
16r	16e-/	.
(16C\LL	16g-/J	.
16G-\	&(8a'/J&)	.
16F\JJ	.	.
=129	=129	=129
8E-'\)	16r	.
.	16g-\LL	.
16r	16a\	.
(16E-\LL	16cc\J	.
16c\	&(8ee-'\J&)	.
16B-\JJ	.	.
=130	=130	=130
8A'\)	16r	.
.	16cc\LL	.
16r	16gg-\	.
(16DD-/LL	&(16ff\JJ&)	.
16D-/	8r	.
16C/JJ	.	.
=131	=131	=131
8BB-'/)	16r	.
.	16d-\LL	.
16r	16f\	.
(16BB-\LL	16b-\J	.
16F'\	&(8dd-'\J&)	.
16E-\JJ	.	.
=132	=132	=132
8D-'\)	16r	.
.	16f\LL	.
16r	16b-\	.
(16D-\LL	16dd-\J	.
16d-\	&(8ff'\J&)	.
16c\JJ	.	.
=133	=133	=133
8B-'\)	16r	.
.	16b-\LL	.
*clefG2	*	*
16r	16dd-\	.
(16B-/LL	16ff\J	.
16f/	&(8bb-'\J&)	.
16e-/JJ	.	.
=134	=134	=134
16d-/LL	8r	.
16f/	.	.
16b-/JJ)	16r	.
16r	16fff\LL	f
8r	16bb-\	.
.	16ccc\JJ	.
*clefF4	*	*
=135	=135	=135
16r	&(8ddd-'\&)	.
16EE-/LL	.	.
16GG/	16r	.
&(16BB-/JJ&)	(16ddd-\LL	.
8r	16gg-\	.
.	16aa-\JJ	.
=136	=136	=136
16r	8bb-'\)	.
16GG-/LL	.	.
16BB-/	16r	.
&(16E-/JJ&)	(16bb-\LL	.
8r	16dd-\	.
.	16ff\JJ	.
=137	=137	=137
16r	8gg-'\)	.
16BB-\LL	.	.
16E-\	16r	.
16G-\JJ	(16gg-\LL	.
8r	16b-\	.
.	16cc\JJ	.
=138	=138	=138
16r	8dd-'\)	.
16E-\LL	.	.
16G-\	16r	.
&(16B-\JJ&)	(16fff\LL	f
8r	16bb-\	.
.	16ccc\JJ	.
=139	=139	=139
16r	8ddd-'\)	.
16FF/LL	.	.
16BB-/	16r	.
&(16D-/JJ&)	(16ddd-\LL	.
8r	16ff\	.
.	16aan\JJ	.
=140	=140	=140
16r	8bb-'\)	.
16BB-\LL	.	.
16D-\	16r	.
&(16F\JJ&)	(16bb-\LL	.
8r	16dd-\	.
.	16ee-\JJ	.
=141	=141	=141
16r	8ff'\)	.
16D-\LL	.	.
16F\	16r	.
&(16B-\JJ&)	(16ff\LL	.
8r	16b-\	.
.	16cc\JJ	.
=142	=142	=142
16r	8dd-'\)	<
16F\LL	.	.
16B-\	16r	.
&(16d-\JJ&)	(16ddd-\LL	.
8r	16bb-\	.
.	16ccc\JJ	.
=143	=143	=143
16r	8ddd-'\)	.
16GG-/LL	.	.
16BB-/	16r	.
&(16D/JJ&)	(16dd-\LL	.
8r	16b-\	.
.	16cc\JJ	.
=144	=144	=144
16r	8dd-'\)	.
16G-\LL	.	.
16B-\	16r	.
&(16d-\JJ&)	(16ddd-\LL	.
8r	16bb-\	.
.	16ccc\JJ	.
=145	=145	=145
16r	8ddd-'\)	.
16GGn/LL	.	.
16BB-/	16r	.
&(16E-/JJ&)	(16dd-\LL	.
8r	16b-\	.
.	16cc\JJ	.
=146	=146	=146
16r	8dd-'\)	.
16G\LL	.	.
16B-\	16r	.
&(16e-\JJ&)	(16ccc\LL	.
8r	16aa-\	.
.	16bb-\JJ	.
=147	=147	=147
16r	8ccc'\)	.
16AA-/LL	.	.
16C/	16r	.
&(16E-/JJ&)	(16cc\LL	.
8r	16a-\	.
.	16b-\JJ	.
=148	=148	=148
16r	8cc'\)	.
16A-\LL	.	.
16c\	16r	.
&(16e-\JJ&)	(16eee-\LL	ff
8r	16ccc\	.
.	16ddd-\JJ	.
=149	=149	=149
16r	8eee-'\)	.
16AAn/LL	.	.
16C/	16r	.
&(16F/JJ&)	(16ee-\LL	.
8r	16cc\	.
.	16dd-\JJ	.
=150	=150	=150
16r	8ee-'\)	.
16An\LL	.	.
&(16c\JJ&)	16r	.
16r	(16f\LL	p
8r	16dd-\	.
.	16cc\JJ	.
=151	=151	=151
16BB-/LL	8b-'\)	p
16F/	.	.
16B-/	16r	.
16d-/JJ	(16f\LL	.
8F\	16dd-\	.
.	16cc\JJ	.
=152	=152	=152
16BB-/LL	8b-'\)	.
16F/	.	.
16B-/	16r	.
16d-/JJ	(16f\LL	.
8F\	16dd-\	.
.	16cc\JJ	.
=153	=153	=153
16BB-/LL	8b-'\)	.
16F/	.	.
16B-/	16r	.
16d-/JJ	(16f\LL	.
8F\	16dd-\	.
.	16b-\JJ	.
=154	=154	=154
16FF/LL	8cc'\)	.
16F/	.	.
16A/	16r	.
16c/JJ	(16f\LL	.
8F\	16ee-\	.
.	16dd-\JJ	.
=155	=155	=155
16FF/LL	8cc'\)	.
16F/	.	.
16A/	16r	.
16c/JJ	(16f\LL	.
8F\	16ee-\	.
.	16dd-\JJ	.
=156	=156	=156
16FF/LL	8cc'\)	.
16F/	.	.
16A/	16r	.
16c/JJ	(16f\LL	.
8F\	16ee-\	.
.	16dd-\JJ	.
=157	=157	=157
16FF/LL	8cc'\)	.
16F/	.	.
16A/	16r	.
16c/JJ	(16f\LL	.
8F\	16ee-\	.
.	16cc\JJ	.
=158	=158	=158
16BB-/LL	8dd-'\)	.
16F/	.	.
16B-/	16r	.
16d-/JJ	(16f\LL	.
8F\	16dd-\	.
.	16ff\JJ)	.
=159	=159	=159
16BB-/LL	8r	.
16F/	.	.
16B-/	16r	.
16d-/JJ	(16f\LL	.
8F\	16dd-\	.
.	16ff\JJ)	.
=160	=160	=160
16BB-/LL	8r	.
16F/	.	.
16B-/	16r	.
16d-/JJ	(16f\LL	.
8F\	16dd-\	.
.	16ff\JJ)	.
=161	=161	=161
16BB-/LL	8r	.
16G-/	.	.
16B-/	16r	.
16d-/JJ	(16g-\LL	.
8G-\	16dd-\	.
.	16gg-\JJ)	.
=162	=162	=162
16BB-/LL	8r	.
16G-/	.	.
16B-/	16r	.
16d-/JJ	16g-\LL	.
8G-\	16dd-\	.
.	16gg-\JJ	.
=163	=163	=163
16BB-/LL	8r	.
16Gn/	.	.
16d-/	16r	.
16en/JJ	(16gn\LL	.
8G\	16dd-\	.
.	16ggn\JJ)	.
=164	=164	=164
16BB-/LL	8r	.
16G/	.	.
16d-/	16r	.
16e/JJ	16g\LL	.
8G\	16dd-\	.
.	16gg\JJ	.
=165	=165	=165
16BB-/LL	8r	.
16G#/	.	.
16dn/	16r	.
16f/JJ	16g#\LL	.
8G#\	16ddn\	.
.	16gg#\JJ	.
=166	=166	=166
16BB-/LL	8r	.
16G#/	.	.
16d/	16r	.
16f/JJ	(16g#\LL	.
8G#\	16dd\	.
.	16gg#\JJ)	.
=167	=167	=167
16BB-/LL	8r	.
16G#/	.	.
16d/	16r	.
16f/JJ	(16g#\LL	.
8G#\	16dd\	.
.	16gg#\JJ)	.
=168	=168	=168
16BB-/LL	8r	.
16G#/	.	.
16d/	16r	.
16f/JJ	(16g#\LL	.
8G#\	16dd\	.
.	16gg#\JJ)	.
=169	=169	=169
*	*^	*
16AA/LL	8aa/	8r	f
16A/	.	.	.
16c#/	8r	16r	.
16e/JJ	.	16a\LL	.
8A\	(8aa/	16een'\	.
.	.	16cc#\JJ	.
=170	=170	=170	=170
16D/LL	8ff\	8gg#/)	.
16A/	.	.	.
16d/	8r	16r	.
16f/JJ	.	16a\LL	.
8A\	(8gg#/	16ff\	.
.	.	16dd\JJ	.
=171	=171	=171	=171
16AA/LL	8aa'/)	8ee\	.
16A/	.	.	.
16c#/	8r	16r	.
16e/JJ	.	16a\LL	.
8A\	(8aa/	16ee\	.
.	.	16cc#\JJ	.
=172	=172	=172	=172
16D/LL	8ff\	8gg#'/)	.
16A/	.	.	.
16d/	8r	16r	.
16f/JJ	.	16a\LL	.
8A\	(8gg#/	16ff\	.
.	.	16dd\JJ	.
=173	=173	=173	=173
*^	*	*	*
16AA/LL	4r	8aa/)	8cc#\ 8ee\	p
16A/	.	.	.	.
(16c#/	.	4r	16r	.
[16e/JJ	.	.	(16cc#\LL	.
8c#/) 8e/]	8A\	.	16ee\	.
.	.	.	16ggn\JJ)	.
*	*	*v	*v	*
=174	=174	=174	=174
(16G/LL	4.G\	8b-'\	.
[16A/JJ	.	.	.
4A/] 4e/)	.	16r	.
.	.	(16b-\LL	.
.	.	16cc#\	.
.	.	16ee\JJ)	.
*v	*v	*	*
=175	=175	=175
(16C#/LL	8g'/L	.
[16E/JJ	.	.
4E/] 4A/)	16r	.
.	(16b-/L	.
.	16a/	.
.	16g/JJ)	.
=176	=176	=176
*^	*	*
(16D/LL	4.D\	8f'/L	.
[16F/JJ	.	.	.
4F/] 4A/)	.	16r	.
.	.	(16f/L	.
.	.	16e/	.
.	.	16d/JJ)	.
=177	=177	=177	=177
16AA/LL	4r	8c#'/L	.
16A/	.	.	.
16c#/	.	16r	.
[16e/JJ	.	(16cc#/L	.
8c#/ 8e/]	8A\	16ee'/	.
.	.	16gg/JJ)	.
=178	=178	=178	=178
(16G/LL	4.G\	8b-'\L	.
[16A/JJ	.	.	.
4A/] 4e/)	.	16r	.
.	.	(16b-\L	.
.	.	16cc#\	.
.	.	16ee\JJ)	.
=179	=179	=179	=179
16C#/LL	(4.C#\	8g'/L	.
[16E/JJ	.	.	.
4E/] 4A/)	.	16r	.
.	.	(16b-/L	.
.	.	16a/	.
.	.	16g/JJ)	.
=180	=180	=180	=180
16D/LL	(4.D\	8f'/L	.
[16F/JJ	.	.	.
4F/] 4A/)	.	16r	.
.	.	(16f/L	.
.	.	16e/	.
.	.	16d/JJ)	.
*v	*v	*	*
=181	=181	=181
16D\	8ff#'\L	.
*clefG2	*	*
16d/LL	.	.
16f#/	16r	.
[16a/JJ	(16ff#\L	.
8f#/ 8a/]	16aa\	.
.	16ccc\JJ)	.
=182	=182	=182
*^	*	*
(16cn/LL	4.cn\	8ee-'\L	.
[16d/JJ	.	.	.
4d/] 4a/)	.	16r	.
.	.	(16ee-\L	.
.	.	16ff#\	.
.	.	16aa\JJ)	.
*v	*v	*	*
*clefF4	*	*
=183	=183	=183
*^	*	*
16F#/LL	(4.F#\	8ccn'\L	.
[16A/JJ	.	.	.
4A/] 4d/)	.	16r	.
.	.	(16ee-\L	.
.	.	16dd\	.
.	.	16cc\JJ)	.
=184	=184	=184	=184
(16G/LL	4.G\	8b-'/L	.
[16B-/JJ	.	.	.
4B-/] 4d/)	.	16r	.
.	.	(16b-/L	.
.	.	16a/	.
.	.	16g/JJ)	.
*v	*v	*	*
=185	=185	=185
16D\	8f#'\L	.
*clefG2	*	*
16d/LL	.	.
16f#/	16r	.
[16a/JJ	(16ff#\L	.
8f#/ 8a/]	16aa\	.
.	16ccc\JJ)	.
=186	=186	=186
*^	*	*
(16c/LL	4.c\	8ee-'\L	.
[16d/JJ	.	.	.
4d/] 4a/)	.	16r	.
.	.	(16ee-\L	.
.	.	16ff#\	.
.	.	16aa\JJ)	.
*v	*v	*	*
*clefF4	*	*
=187	=187	=187
*^	*	*
(16F#/LL	4.F#\	8cc'\L	.
[16A/JJ	.	.	.
4A/] 4d/)	.	16r	.
.	.	(16ee-\L	.
.	.	16dd\	.
.	.	16cc\JJ)	.
=188	=188	=188	=188
(16G/LL	4.G\	8b-'/L	.
[16B-/JJ	.	.	.
4B-/] 4d/)	.	16r	.
.	.	(16b-/L	.
.	.	16a/	.
.	.	16g/JJ)	.
=189	=189	=189	=189
(16C#/LL	4.C#\	8bb-'\L	.
16En/JJ	.	.	.
&(4A/&))	.	16r	.
.	.	(16bb-\L	.
.	.	16aa\	.
.	.	16gg\JJ)	.
=190	=190	=190	=190
16D/LL	(4.D\	8ffn'\L	.
[16Fn/JJ	.	.	.
4F/] 4A/)	.	16r	.
.	.	(16ff\L	.
.	.	16ee\	.
.	.	16dd\JJ)	.
=191	=191	=191	=191
(16F#/LL	4.F#\	8ee-'\L	.
[16A/JJ	.	.	.
4A/] 4d/)	.	16r	.
.	.	(16ee-\L	.
.	.	16dd\	.
.	.	16cc\JJ)	.
=192	=192	=192	=192
16G/LL	(4.G\	8b-'/L	.
[16B-/JJ	.	.	.
4B-/] 4d/)	.	16r	.
.	.	(16b-/L	.
.	.	16a/	.
.	.	16g/JJ)	.
=193	=193	=193	=193
16C#/LL	(4.C#\	8bb-'\L	.
[16E/JJ	.	.	.
4E/] 4A/)	.	16r	.
.	.	(16bb-\L	.
.	.	16aa\	.
.	.	16gg\JJ)	.
=194	=194	=194	=194
16D/LL	(4.D\	8ff'\L	.
[16Fn/JJ	.	.	.
4F/] 4A/)	.	16r	.
.	.	(16ff\L	.
.	.	16een\	.
.	.	16dd\JJ)	.
=195	=195	=195	=195
16C#/LL	(4.C#\	8bb-'\L	.
[16E/JJ	.	.	.
4E/] 4A/)	.	16r	.
.	.	(16bb-\L	.
.	.	16aa\	.
.	.	16gg\JJ)	.
=196	=196	=196	=196
(16D/LL	4.D\	8ff'\L	.
[16F/JJ	.	.	.
4F/] 4A/)	.	16r	.
.	.	(16ff\L	.
.	.	16ee\	.
.	.	16dd\JJ)	.
=197	=197	=197	=197
(16C#/LL	4.C#\	8bb-'\L	.
[16E/JJ	.	.	.
4E/] 4A/)	.	16r	.
.	.	(16bb-\L	.
.	.	16aa\	.
.	.	16gg\JJ)	.
=198	=198	=198	=198
16D/LL	(4.D\	8ff'\L	.
[16F/JJ	.	.	.
4F/] 4A/)	.	16r	.
.	.	(16ff\L	.
.	.	16ee\	.
.	.	16dd\JJ)	.
*v	*v	*	*
=199	=199	=199
8AA/ 8C#/ 8E/ 8G/	(16bb-\LL	f
.	16gg\	.
8r	16ff#\	.
.	16gg\	.
8r	16bb-\	.
.	16gg\JJ	.
=200	=200	=200
4.r	16ff#\LL	.
.	16gg\	.
.	16bb-\	.
.	16gg\	.
.	16ff#\	.
.	16gg\JJ)	.
=201	=201	=201
4.r	(16dd#\LL	.
.	16ee\	.
.	16gg\	.
.	16ee\	.
.	16dd#\	.
.	16ee\JJ	.
=202	=202	=202
4.r	16gg\LL	.
.	16ee\	.
.	16dd#\	.
.	16ee\	.
.	16gg\	.
.	16ee\JJ)	.
=203	=203	=203
4.r	(16b#\LL	.
.	16cc#\	.
.	16ee\	.
.	16cc#\	.
.	16b#\	.
.	16cc#\JJ	.
=204	=204	=204
4.r	16ee\LL	.
.	16cc#\	.
.	16b#\	.
.	16cc#\	.
.	16ee\	.
.	16cc#\JJ)	.
=205	=205	=205
4.r	(16a\LL	.
.	16b-\	.
.	16cc#\	.
.	16b-\	.
.	16a\	.
.	16b-\JJ	.
=206	=206	=206
4.r	16cc#\LL	.
.	16b-\	.
.	16a\	.
.	16b-\	.
.	16cc#\	.
.	16b-\JJ)	.
=207	=207	=207
4.r	(16f#/LL	.
.	16g/	.
.	16b-/	.
.	16g/	.
.	16f#/	.
.	16g/JJ	.
=208	=208	=208
4.r	16b-/LL	.
.	16g/	.
.	16f#/	.
.	16g/	.
.	16b-/	.
.	16g/JJ	.
=209	=209	=209
4.r	16f#/LL	>
.	16g/	.
.	16b-/	.
.	16g/	.
.	16f#/	.
.	16g/JJ	.
=210	=210	=210
4.r	16b-/LL	.
.	16g/	.
.	16f#/	.
.	16g/	.
.	16b-/	.
.	16g/JJ)	.
=211	=211	=211
4.r	(16f#/LL	p
.	16g/	.
.	16b-/	.
.	16g/	.
.	16f#/	.
.	16g/JJ	.
=212	=212	=212
4.r	16b-/LL	>
.	16cc#/	.
.	16b-/	.
.	16g/	.
.	16f#/	.
.	16g/JJ	.
=213	=213	=213
4.r	16b-\LL	.
.	16cc#\	.
.	16ee\	.
.	16g\	pp
.	16f#\	.
.	16g\JJ	.
=214	=214	=214
4.r	16b-\LL	.
.	16cc#\	.
.	16ee\	.
.	16a\	.
.	16ff\	.
.	16ee\JJ	.
=215	=215	=215
16D/LL	8dd'\)	p
16A/	.	.
16d/	16r	.
16f/JJ	16a\LL	.
8A\	16ff\	.
.	16ee\JJ	.
=216	=216	=216
16D/LL	8dd'\	.
16A/	.	.
16d/	16r	.
16f/JJ	(16a\LL	.
8A\	16ff\	.
.	16ee\JJ	.
=217	=217	=217
16D/LL	8dd'\)	.
16A/	.	.
16d/	16r	.
16f/JJ	(16a\LL	.
8A\	16ff\	.
.	16dd\JJ	.
=218	=218	=218
16AA/LL	8ee'\)	.
16A/	.	.
16c#/	16r	.
16e/JJ	(16a\LL	.
8A\	16gg\	.
.	16ff\JJ	.
=219	=219	=219
16AA/LL	8ee'\)	.
16A/	.	.
16c#/	16r	.
16e/JJ	(16a\LL	.
8A\	16gg\	.
.	16ff\JJ	.
=220	=220	=220
16AA/LL	8ee'\)	.
16A/	.	.
16c#/	16r	.
16e/JJ	(16a\LL	.
8A\	16gg\	.
.	16ff\JJ	.
=221	=221	=221
16AA/LL	8ee'\)	.
16A/	.	.
16c#/	16r	.
16e/JJ	(16a\LL	.
8A\	16gg\	.
.	16ee\JJ	.
=222	=222	=222
16D/LL	8ff'\)	.
16A/	.	.
16d/	16r	.
16f/JJ	(16dd\LL	.
8A\	16aa\	.
.	16ddd\JJ	.
=223	=223	=223
*^	*	*
16G/LL	4.G\	8bb-'\)	.
[16d/JJ	.	.	.
4d/] &(4g/&)	.	16r	.
.	.	(16b-\LL	.
.	.	16dd\	.
.	.	16bb-\JJ	.
=224	=224	=224	=224
16E-/LL	4.E-\	8gg'\)	.
[16B-/JJ	.	.	.
4B-/] &(4e-/&)	.	16r	.
.	.	(16g\LL	.
.	.	16b-\	.
.	.	16gg\JJ	.
=225	=225	=225	=225
16C#/LL	4.C#\	8een'\)	.
[16A/JJ	.	.	.
4A/] &(4c#/&)	.	16r	.
.	.	(16e\LL	.
.	.	16a\	.
.	.	16ee\JJ	.
=226	=226	=226	=226
16D/LL	4.D\	8ff'\)	.
[16A/JJ	.	.	.
4A/] &(4d/&)	.	16r	.
.	.	(16f\LL	.
.	.	16a\	.
.	.	16ff\JJ	.
=227	=227	=227	=227
16AA/LL	4.AA\	8dd'\)	p
[16F/JJ	.	.	.
4F/] &(4A/&)	.	16r	.
.	.	(16d\LL	.
.	.	16a\	.
.	.	16dd\JJ	.
*v	*v	*	*
=228	=228	=228
16AA/LL	8cc#'\)	.
16En/	.	.
16G/	16r	.
[16A/JJ	(16c#/LL	.
8E/ 8G/ 8A/]	16a/	.
.	16cc#/JJ	.
=229	=229	=229
16DD\LL	8dd'\)	f
16D\	.	.
16F\	8r	.
16A\JJ	.	.
&(8d'\&)	(16f/LL	.
.	16a/JJ	.
=230	=230	=230
4.r	16dd\LL	.
.	16ff\	.
.	16aa\	.
.	16ff\	.
.	16ddd\	.
.	16aa\JJ	.
=231	=231	=231
*^	*	*
16G/LL	4.G\	8bb-'\)	p
[16d/JJ	.	.	.
4d/] &(4g/&)	.	16r	.
.	.	(16b-\LL	.
.	.	16dd\	.
.	.	16bb-\JJ	.
=232	=232	=232	=232
16E-/LL	4.E-\	8gg'\)	.
[16B-/JJ	.	.	.
4B-/] &(4e-/&)	.	16r	.
.	.	(16g\LL	.
.	.	16b-\	.
.	.	16gg\JJ	.
=233	=233	=233	=233
16Cn/LL	4.Cn\	8ee-'\)	.
[16G/JJ	.	.	.
4G/] &(4cn/&)	.	16r	.
.	.	(16e-\LL	.
.	.	16g\	.
.	.	16ee-\JJ	.
=234	=234	=234	=234
16AA/LL	4.AA\	8cc'\)	.
[16F/JJ	.	.	.
4F/] &(4A/&)	.	16r	.
.	.	(16c/LL	.
.	.	16f/	.
.	.	16cc/JJ	.
=235	=235	=235	=235
16BB-/LL	4.BB-\	8dd'\)	p
[16F/JJ	.	.	.
4F/] &(4B-/&)	.	16r	.
.	.	(16d\LL	.
.	.	16f\	.
.	.	16dd\JJ	.
=236	=236	=236	=236
16EE-/LL	4.EE-\	8ee-'\)	.
[16C/JJ	.	.	.
4C/] &(4E-/&)	.	16r	.
.	.	(16e-\LL	.
.	.	16g\	.
.	.	16ee-\JJ	.
=237	=237	=237	=237
16FF/LL	4.FF\	8cc'\)	.
[16C/JJ	.	.	.
4C/] &(4F/&)	.	16r	.
.	.	(16c/LL	f
.	.	16a/	.
.	.	16cc/JJ	.
=238	=238	=238	=238
16DD/LL	4.DD\	8ff'\)	.
[16BB-/JJ	.	.	.
4BB-/] &(4D/&)	.	16r	.
.	.	(16f\LL	.
.	.	16b-\	.
.	.	16ff\JJ	.
=239	=239	=239	=239
16GG/LL	4.GG\	8dd'\)	p
[16BB-/JJ	.	.	.
4BB-/] &(4G/&)	.	16r	.
.	.	(16d\LL	.
.	.	16b-\	.
.	.	16dd\JJ	.
=240	=240	=240	=240
16EE-/LL	4.EE-\	8ee-'\)	.
[16C/JJ	.	.	.
4C/] &(4E-/&)	.	16r	.
.	.	(16e-\LL	.
.	.	16g\	.
.	.	16ee-\JJ	.
=241	=241	=241	=241
16FF/LL	4.FF\	8cc'\)	.
[16C/JJ	.	.	.
4C/] &(4F/&)	.	16r	.
.	.	(16c/LL	.
.	.	16a/	.
.	.	16cc/JJ	.
*v	*v	*	*
=242	=242	=242
(16BBB-/LL	8b-'/)	.
16FF/	.	.
16BB-/)	8r	f
(16FFF/	.	.
16DD-/	8r	.
16CC/JJ	.	.
*	*clefF4	*clefF4
=243	=243	=243
8BBB-'/)	16r	.
.	16BB-\LL	f
16r	16D-\	.
(16FFF/LL	16F\J	.
16DD-/	&(8B-'\J&)	.
16CC/JJ	.	.
=244	=244	=244
8BBB-'/)	16r	.
.	16BB-\LL	.
16r	16D-\	.
(16FFF/LL	16F\J	.
16DD-/	&(8B-'\J&)	.
16CC/JJ	.	.
=245	=245	=245
8BBB-'/)	16r	.
.	16BB-\LL	.
16r	16D-\	.
(16FFF/LL	16F\J	.
16DD-/	&(8B-'\J&)	.
16BBB-/JJ	.	.
=246	=246	=246
4.CC/)	16GG\LL	f
.	16BB-\	.
.	16En\	.
.	16G\	.
.	16B-\	.
.	16en\JJ	.
*	*clefG2	*clefG2
=247	=247	=247
8FFF'/ 8FF'/L	16F/LL	.
.	16f/	.
8AA-'/	16A-/	.
.	16a-/	.
8C'/J	16c/	.
.	16cc/JJ	.
=248	=248	=248
8F'\L	16f\LL	.
.	16ff\	.
8A-'\	16a-\	.
.	16aa-\	.
8F'\J	16f\	.
.	16ff\JJ	.
=249	=249	=249
8C'/L	16c/LL	.
.	16cc/	.
8AA-'/	16A-/	.
.	16a-/	.
8C'/J	16c/	.
.	16cc/JJ	.
=250	=250	=250
(8AA-/L	16A-/LL	.
.	16a-/	.
16FF/L)	16F/	.
(16CC/	16f/JJ	.
16AA-/	8r	.
16GG/JJ	.	.
*	*clefF4	*clefF4
=251	=251	=251
8FF'/)	16r	.
.	16F\LL	.
16r	16A-\	.
(16CC/LL	16c\J	.
16AA-/	&(8f'\J&)	.
16GG/JJ	.	.
=252	=252	=252
8FF'/)	16r	.
.	16F\LL	.
16r	16A-\	.
(16CC/LL	16c\J	.
16AA-/	&(8f'\J&)	.
16GG/JJ	.	.
=253	=253	=253
8FF'/)	16r	.
.	16F\LL	.
16r	16A-\	.
(16CC/LL	16c\J	.
16AA-/	&(8f'\J&)	.
16FF/JJ)	.	.
=254	=254	=254
4.GGG/ 4.GG/	16D\LL	.
.	16F\	.
.	16Bn\	.
.	16d\JJ	.
*	*clefG2	*clefG2
.	16f\LL	.
.	16bn\JJ	.
=255	=255	=255
8CC'\ 8C'\L	16c\LL	.
.	16cc\	.
8E-'\	16e-\	.
.	16ee-\	.
8G'\J	16g\	.
.	16gg\JJ	.
=256	=256	=256
8c'\L	16cc\LL	.
.	16ccc\	.
8e-'\	16ee-\	.
.	16eee-\	.
8c'\J	16cc\	.
.	16ccc\JJ	.
=257	=257	=257
8G'\L	16g\LL	.
.	16gg\	.
8E-'\	16e-\	.
.	16ee-\	.
8G'\J	16g\	.
.	16gg\JJ	.
=258	=258	=258
8E-'\L	16e-\LL	.
.	16ee-\	.
16C'\Jk	16c\	.
(16GGG/LL	16cc\JJ	.
16EE-/	8r	.
16DD/JJ	.	.
*	*clefF4	*clefF4
=259	=259	=259
8CC'/)	16r	.
.	16C\LL	.
16r	16E-\	.
(16GGG/LL	16G\J	.
16EE-/	&(8c'\J&)	.
16DD/JJ	.	.
=260	=260	=260
8CC'/)	16r	.
.	16C\LL	.
16r	16E-\	.
(16GGG/LL	16G\J	.
16EE-/	&(8c'\J&)	.
16DD/JJ	.	.
=261	=261	=261
8CC'/)	16r	.
.	16C\LL	.
16r	16E-\	.
(16GGG/LL	16G\J	.
16EE-/	&(8c'\J&)	.
16CC/JJ	.	.
=262	=262	=262
4.DD/)	16AAn\LL	.
.	16C\	.
.	16F#\	.
.	16A\	.
.	16c\	.
.	16f#\JJ	.
*	*clefG2	*clefG2
=263	=263	=263
8GGG'/ 8GG'/L	16G/LL	.
.	16g/	.
8BB-'/	16B-/	.
.	16b-/	.
8D'/J	16d/	.
.	16dd/JJ	.
=264	=264	=264
8G'\L	16g\LL	.
.	16gg\	.
8B-'\	16b-\	.
.	16bb-\	.
8G'\J	16g\	.
.	16gg\JJ	.
=265	=265	=265
8D'/L	16d/LL	.
.	16dd/	.
8BB-'/	16B-/	.
.	16b-/	.
8D'/J	16d/	.
.	16dd/JJ	.
=266	=266	=266
8BB-'/L	16B-/LL	.
.	16b-/	.
16GG'/Jk	16G/	.
(16DD/LL	16g/JJ	.
16BB-/	8r	.
16AA/JJ	.	.
*	*clefF4	*clefF4
=267	=267	=267
8GG'/)	16r	.
.	16D\LL	.
16r	16G\	.
(16DD/LL	16B-\J	.
16BB-/	&(8d'\J&)	.
16AA/JJ	.	.
=268	=268	=268
8GG'/)	16r	.
.	16D\LL	.
16r	16G\	.
(16DD/LL	16B-\J	.
16BB-/	&(8d'\J&)	.
16AA/JJ	.	.
=269	=269	=269
8GG'/)	16r	.
.	16D\LL	.
16r	16G\	.
(16DD/LL	16B-\J	.
16BB-/	&(8d'\J&)	.
16GG/JJ)	.	.
=270	=270	=270
4.BBB-/ 4.BB-/	16D\ 16G#\LL	.
.	16d\	.
.	16D\ 16G#\	.
.	16d\	.
.	16D\ 16G#\	.
.	16d\JJ	.
=271	=271	=271
8AAA/ 8AA/	8E'\ 8A'\ 8c#'\	f
*	*clefG2	*clefG2
16E\ 16G\LL	(8b-/L	.
16A\	.	.
16C#\	8a/J)	.
16A\JJ	.	.
=272	=272	=272
16E\ 16G\LL	(8b-/L	.
16A\	.	.
16C#\	8a/J)	.
16A\	.	.
16E\ 16G\	8b-/	.
16A\JJ	.	.
=273	=273	=273
16C#\LL	8a/	.
16A\	.	.
16E\ 16G\	(8b-/L	.
16A\	.	.
16C#\	8a/J)	.
16A\JJ	.	.
=274	=274	=274
16E\ 16G\LL	(8b-/L	.
16A\	.	.
16C#\	8a/J)	.
16A\	.	.
16E\ 16G\	(8b-/	.
16A\JJ	.	.
=275	=275	=275
16C#\LL	8a'/)	.
16A\	.	.
16E\ 16G\	[4b-/	.
16A\	.	.
16C#\	.	.
16A\JJ	.	.
=276	=276	=276
16E\ 16G\LL	8b-/L]	.
16A\	.	.
16C#\	8a'/	.
16A\	.	.
16E\ 16G\	8g'/J	.
16A\JJ	.	.
=277	=277	=277
16D\LL	8f'/L	p
16A\	.	.
16F\	8e'/	.
16A\	.	.
16D\	8d'/J	.
16A\JJ	.	.
=278	=278	=278
16AA\LL	8c#'/L	.
16G\	.	.
16E\	8d'/	.
16G\	.	.
16AA\	8e'/J	.
16G\JJ	.	.
=279	=279	=279
16D\ 16F\LL	8d'/	.
16A\	.	.
16E\ 16G\	(16b-\LL	f
16A\	16bb-\	.
16C#\	16a\	.
16A\JJ	16aa\JJ	.
=280	=280	=280
16E\ 16G\LL	16b-\LL	.
16A\	16bb-\	.
16C#\	16a\	.
16A\	16aa\	.
16E\ 16G\	16b-\	.
16A\JJ	16bb-\JJ	.
=281	=281	=281
16C#\LL	16a\LL	.
16A\	16aa\	.
16E\ 16G\	16b-\	.
16A\	16bb-\	.
16C#\	16a\	.
16A\JJ	16aa\JJ	.
=282	=282	=282
16E\ 16G\LL	16b-\LL	.
16A\	16bb-\	.
16C#\	16a\	.
16A\	16aa\	.
16E\ 16G\	16b-\	.
16A\JJ	16bb-\JJ	.
=283	=283	=283
16C#\LL	8a\ 8aa\)	.
16A\	.	.
16E\ 16G\	[4b-\ [4bb-\	.
16A\	.	.
16C#\	.	.
16A\JJ	.	.
=284	=284	=284
16E\ 16G\LL	8b-\] 8bb-\L]	.
16A\	.	.
16C#\	8a'\ 8aa'\	.
16A\	.	.
16E\ 16G\	8g'\ 8gg'\J	.
16A\JJ	.	.
=285	=285	=285
16D\LL	8f'\ 8ff'\L	p
16A\	.	.
16F\	8e'\ 8ee'\	.
16A\	.	.
16D\	8d'\ 8dd'\J	.
16A\JJ	.	.
=286	=286	=286
16AA\LL	8c#'\ 8cc#'\L	.
16G\	.	.
16E\	8d'\ 8dd'\	.
16G\	.	.
16AA\	8e'\ 8ee'\J	.
16G\JJ	.	.
=287	=287	=287
16BB-\LL	8d\ (8dd\L	.
16F\	.	.
16D\	8b-\ 8bb-\)	.
16F\	.	.
16BB-\	8b-'\ 8bb-'\J	.
16F\JJ	.	.
=288	=288	=288
16GG/LL	8b-'\ 8bb-'\L	.
16E-/	.	.
16BB-/	8a'\ 8aa'\	.
16E-/	.	.
16GG/	8g'\ 8gg'\J	.
16E-/JJ	.	.
=289	=289	=289
16AA/LL	8f'\ 8ff'\L	.
16F/	.	.
16D/	8en'\ 8een'\	.
16F/	.	.
16AA/	8d'\ 8dd'\J	.
16F/JJ	.	.
=290	=290	=290
16GG/LL	8c#'\ 8cc#'\L	.
16En/	.	.
16AA/	8d'\ 8dd'\	.
16E/	.	.
16GG/	8e'\ 8ee'\J	.
16E/JJ	.	.
=291	=291	=291
16FF/LL	8d\ (8dd\L	f
16D/	.	.
16EE/	8b-\ 8bb-\)	.
16D/	.	.
16FF/	8b-'\ 8bb-'\J	.
16D/JJ	.	.
=292	=292	=292
16GG/LL	8b-'\ 8bb-'\L	.
16D/ 16E/	.	.
16FF/	8a'\ 8aa'\	.
16D/ 16E/	.	.
16GG/	8g'\ 8gg'\J	.
16D/ 16E/JJ	.	.
=293	=293	=293
16AA/LL	8f'\ 8ff'\L	.
16D/ 16F/	.	.
16GG#/	8e'\ 8ee'\	.
16D/ 16F/	.	.
16AA/	8d\ 8dd\J	.
16D/ 16F/JJ	.	.
=294	=294	=294
16AA/LL	8c#'/ 8cc#'/L	.
16E/ 16Gn/	.	.
16AA/	8d'/ 8dd'/	.
16D/ 16F/	.	.
16AA/	8e'/ 8ee'/J	.
16C#/ 16E/JJ	.	.
=295	=295	=295
16DD/LL	8d'/ 8dd'/	p
16F/	.	.
16D/	8r	.
16F/	.	.
16AA/	(16d/LL	.
16F/JJ	16dd/JJ	.
=296	=296	=296
16DD/LL	8f'/)	.
16F/	.	.
16D/	8r	.
16F/	.	.
16AA/	(16f/LL	.
16F/JJ	16ff/JJ	.
=297	=297	=297
16DD/LL	8a'/)	.
16F/	.	.
16D/	8r	.
16F/	.	.
16AA/	(16a\LL	.
16F/JJ	16aa\JJ	.
=298	=298	=298
16DD/LL	8f'/)	.
16F/	.	.
16D/	8r	.
16F/	.	.
16AA/	(16f/LL	.
16F/JJ	16ff/JJ	.
=299	=299	=299
*	*^	*
16AAA/LL	8r	[4.d\)	.
16F/	.	.	.
16D/	[4dd/	.	.
16F/	.	.	.
16AA/	.	.	.
16F/JJ	.	.	.
*	*v	*v	*
=300	=300	=300
16AAA/LL	(8d/] 8dd/L]	.
16G/	.	.
16E/	8e'/) 8ee'/	.
16G/	.	.
16AA/	8c#'/ 8cc#'/J	.
16G/JJ	.	.
=301	=301	=301
16DD/LL	8d'/ 8dd'/	.
16F/	.	.
16D/	16r	.
16F/	(16d/LL	p
16AA/	16dd/	.
16F/JJ	16d/JJ	.
=302	=302	=302
16DD/LL	8f'/)	.
16F/	.	.
16D/	16r	.
16F/	(16f/LL	.
16AA/	16ff/	.
16F/JJ	16f/JJ	.
=303	=303	=303
16DD/LL	8a'/)	.
16F/	.	.
16D/	16r	.
16F/	16a\LL	.
16AA/	16aa\	.
16F/JJ	16a\JJ	.
=304	=304	=304
16DD/LL	8f'/	.
16F/	.	.
16D/	16r	.
16F/	(16f/LL	.
16AA/	16ff/	.
16F/JJ	16f/JJ	.
=305	=305	=305
*	*^	*
16AAA/LL	8r	[4.d\)	.
16F/	.	.	.
16D/	[4dd/	.	.
16F/	.	.	.
16AA/	.	.	.
16F/JJ	.	.	.
*	*v	*v	*
=306	=306	=306
16AAA/LL	(8d/] 8dd/L]	.
16G/	.	.
16E/	8e/) 8ee/	.
16G/	.	.
16AA/	8c#'/ 8cc#'/J	.
16G/JJ	.	.
=307	=307	=307
16D\LL	8d/ 8dd/	<
16d\	.	.
16c#\	(8ee\L	.
16d\	.	.
16cn\	8ff#\J	.
16d\JJ	.	.
=308	=308	=308
16B-\LL	8gg\L	>
16d\	.	.
16A\	8ffn\ 8ddd\	.
16d\	.	.
16G#\	8ee\ 8ddd\J	.
16d\JJ	.	.
=309	=309	=309
16A\LL	8ff\ 8ddd\L	.
16d\	.	.
16e\	8cc#\ 8ccc#\	.
16A\	.	.
16f\	8dd\ 8ddd\J	.
16A\JJ	.	.
=310	=310	=310
16g\LL	8ee\ 8eee\L	.
16A\	.	.
16f\	8bn\ 8bbn\	.
16A\	.	.
16e\	8cc#\ 8ccc#\J)	.
16A\JJ	.	.
=311	=311	=311
16D\LL	16dd\LL	<
16d\	16ddd\	.
16c#\	16ee\	.
16d\	16ddd\	.
16cn\	16ff#\	.
16d\JJ	16ddd\JJ	.
=312	=312	=312
16B-\LL	16gg\LL	>
16d\	16ddd\	.
16A\	16ffn\	.
16d\	16ddd\	.
16G#\	16ee\	.
16d\JJ	16ddd\JJ	.
=313	=313	=313
16A\LL	16ff\LL	.
16d\	16ddd\	.
16e\	16cc#\	.
16A\	16ccc#\	.
16f\	16dd\	.
16A\JJ	16ddd\JJ	.
=314	=314	=314
16g\LL	16ee\LL	.
16A\	16eee\	.
16f\	16bn\	.
16A\	16bbn\	.
16e\	16cc#\	.
16A\JJ	16ccc#\JJ	.
=315	=315	=315
16D\LL	16dd\LL	.
16d\	16ddd\	.
16c#\	16cc#\	.
16d\	16dd\	.
16D\	16ddd\	.
16d\JJ	16dd\JJ	.
=316	=316	=316
16c#\LL	16cc#\LL	.
16d\	16dd\	.
16D\	16ddd\	.
16d\	16dd\	.
16c#\	16cc#\	.
16d\JJ	16dd\JJ	.
=317	=317	=317
16D\LL	16ddd\LL	.
16d\	16dd\	.
16c#\	16cc#\	.
16d\	16dd\	.
16D\	16ddd\	.
16d\JJ	16dd\JJ	.
=318	=318	=318
16c#\LL	16cc#\LL	.
16d\	16dd\	.
16D\	16ddd\	.
16d\	16dd\	.
16c#\	16cc#\	.
16d\JJ	16dd\JJ	.
*clefG2	*	*
=319	=319	=319
8f#/ 8a/ 8ccn/	(16ee-\LL	p
.	16dd\	.
8r	16ee-\	.
.	16dd\	.
8r	16ee-\	.
.	16dd\JJ	.
=320	=320	=320
4.r	16ee-\LL	.
.	16dd\	.
.	16ee-\	.
.	16dd\	.
.	16ee-\	.
.	16dd\JJ	.
=321	=321	=321
4.r	16ee-\LL	.
.	16dd\	.
.	16ee-\	.
.	16dd\	.
.	16ee-\	.
.	16dd\JJ	.
=322	=322	=322
4.r	16ee-\LL	.
.	16dd\	.
.	16ee-\JJ)	.
.	(16ee-\LL	p
.	16aa\	.
.	16bb-\JJ	.
=323	=323	=323
*^	*	*
16f#/LL	4.f#\	8ccc'\)	p
16a/	.	.	.
&(16cc/JJ&)	.	16r	.
16r	.	(16ee-\LL	.
8r	.	16aa\	.
.	.	16bb-\JJ	.
=324	=324	=324	=324
16f#/LL	4.f#\	8ccc'\)	.
16a/	.	.	.
&(16cc/JJ&)	.	16r	.
16r	.	(16ee-\LL	.
8r	.	16aa\	.
.	.	16bb-\JJ	.
=325	=325	=325	=325
16f#/LL	4.f#\	8ccc'\)	.
16a/	.	.	.
&(16cc/JJ&)	.	16r	.
16r	.	(16ee-\LL	.
8r	.	16aa\	.
.	.	16bb-\JJ	.
=326	=326	=326	=326
16f#/LL	4.f#\	8ccc'\)	.
16a/	.	.	.
&(16cc/JJ&)	.	16r	.
16r	.	(16dd\LL	.
8r	.	16ccc\	.
.	.	16aa'\JJ	.
*v	*v	*	*
*clefF4	*	*
=327	=327	=327
*^	*	*
16G/LL	(4.G\	8bb-'\)	.
[16B-/JJ	.	.	.
4B-/] 4d/)	.	16r	.
.	.	(16g\LL	.
.	.	16b-\	.
.	.	16dd\JJ)	.
=328	=328	=328	=328
16G/LL	(4.G\	8r	.
[16B-/JJ	.	.	.
4B-/] 4c#/)	.	16r	.
.	.	(16g\LL	.
.	.	16b-\	.
.	.	16cc#\JJ)	.
=329	=329	=329	=329
(16G/LL	4.G\	8r	.
[16B-/JJ	.	.	.
4B-/] 4d/)	.	16r	.
.	.	(16g\LL	.
.	.	16b-\	.
.	.	16dd\JJ)	.
=330	=330	=330	=330
(16G/LL	4.G\	8r	.
[16c#/JJ	.	.	.
4c#/] 4e/)	.	16r	.
.	.	16g\LL	.
.	.	16b-\	.
.	.	16ee\JJ	p
*v	*v	*	*
*clefG2	*	*
=331	=331	=331
*^	*	*
16g#/LL	4.g#\	8r	.
16bn/	.	.	.
&(16dd/JJ&)	.	16r	.
16r	.	(16ffn\LL	.
8r	.	16bbn\	.
.	.	16ccc#\JJ	.
=332	=332	=332	=332
16g#/LL	(4.g#\	8ddd'\)	.
16bn/	.	.	.
16dd/JJ)	.	16r	.
16r	.	16ff\LL	.
8r	.	16bb-\	.
.	.	16ccc#\JJ	.
=333	=333	=333	=333
16g#/LL	4.g#\	8ddd'\	.
16bn/	.	.	.
&(16dd/JJ&)	.	16r	.
16r	.	(16ff\LL	.
8r	.	16bbn\	.
.	.	16ccc#\JJ	.
=334	=334	=334	=334
16g#/LL	4.g#\	8ddd'\)	.
16bn/	.	.	.
&(16dd/JJ&)	.	16r	.
16r	.	(16ee\LL	.
8r	.	16ddd\	.
.	.	16bbn\JJ	.
=335	=335	=335	=335
16A/LL	(4.A\	8ccc#'\)	<
[16c#/JJ	.	.	.
4c#/] 4e/)	.	16r	.
.	.	(16a\LL	.
.	.	16cc#\	.
.	.	16ee\JJ)	.
=336	=336	=336	=336
16A/LL	(4.A\	8r	.
[16c#/JJ	.	.	.
4c#/] 4d#/)	.	16r	.
.	.	(16a\LL	.
.	.	16cc#\	.
.	.	16dd#\JJ)	.
=337	=337	=337	=337
16A/LL	(4.A\	8r	.
[16c#/JJ	.	.	.
4c#/] 4e/)	.	16r	.
.	.	(16a\LL	.
.	.	16cc#\	.
.	.	16ee\JJ)	.
=338	=338	=338	=338
16A/LL	(4.A\	8r	.
[16c#/JJ	.	.	.
4c#/] 4f#/)	.	16r	.
.	.	(16a\LL	.
.	.	16cc#\	.
.	.	16ff#\JJ)	.
=339	=339	=339	=339
16A/LL	(4.A\	8r	.
[16c#/JJ	.	.	.
4c#/] 4g/)	.	16r	.
.	.	(16a\LL	.
.	.	16cc#\	.
.	.	16gg\JJ)	.
=340	=340	=340	=340
16A/LL	(4.A\	8r	.
[16c#/JJ	.	.	.
4c#/] 4f#/)	.	16r	.
.	.	(16a\LL	.
.	.	16cc#\	.
.	.	16ff#\JJ)	.
=341	=341	=341	=341
(16A/LL	4.A\	8r	.
[16c#/JJ	.	.	.
4c#/] 4g/)	.	16r	.
.	.	(16a\LL	.
.	.	16cc#\	.
.	.	16gg\JJ)	.
=342	=342	=342	=342
16A/LL	(4.A\	8r	.
[16c#/JJ	.	.	.
4c#/] 4fn/)	.	16r	.
.	.	(16a\LL	.
.	.	16cc#\	.
.	.	16ffn\JJ)	.
=343	=343	=343	=343
16A/LL	(4.A\	8r	.
[16c#/JJ	.	.	.
4c#/] 4e/)	.	16r	.
.	.	(16a\LL	.
.	.	16cc#\	.
.	.	16ee\JJ)	.
=344	=344	=344	=344
16A/LL	(4.A\	8r	.
[16c#/JJ	.	.	.
4c#/] 4d#/)	.	16r	.
.	.	(16a\LL	.
.	.	16cc#\	.
.	.	16dd#\JJ)	.
=345	=345	=345	=345
(16A/LL	4.A\	8r	.
[16c#/JJ	.	.	.
4c#/] 4e/)	.	16r	.
.	.	(16a\LL	.
.	.	16cc#\	.
.	.	16ee\JJ)	.
=346	=346	=346	=346
16A/LL	(4.A\	8r	.
[16c#/JJ	.	.	.
4c#/] 4f#/)	.	16r	.
.	.	(16a\LL	.
.	.	16cc#\	.
.	.	16ff#\JJ)	.
=347	=347	=347	=347
16A/LL	(4.A\	8r	.
[16c#/JJ	.	.	.
4c#/] 4g/)	.	16r	.
.	.	(16a\LL	>
.	.	16cc#\	.
.	.	16gg\JJ)	.
=348	=348	=348	=348
16A/LL	(4.A\	8r	.
[16c#/JJ	.	.	.
4c#/] 4g/)	.	16r	.
.	.	(16a\LL	.
.	.	16cc#\	.
.	.	16gg\JJ)	.
=349	=349	=349	=349
16A/LL	(4.A\	8r	pp
[16c#/JJ	.	.	.
4c#/] 4g/)	.	16r	.
.	.	(16a\LL	pp
.	.	16cc#\	.
.	.	16gg\JJ)	.
=350	=350	=350	=350
*	*	*^	*
(16A/LL	4.A\	4r	8r	.
16c#/	.	.	.	.
16e/JJ)	.	.	16r	.
16r	.	.	16a\LL	ff
8r	.	[8aa/	16ffn\	.
.	.	.	16ee\JJ	.
*v	*v	*	*	*
*clefF4	*	*	*
=351	=351	=351	=351
16D/LL	8aa/]	8dd\	ff
16A/	.	.	.
16d/	8r	16r	.
16f/JJ	.	(16a\LL	.
8A\	[8aa/	16ff\	.
.	.	16ee\JJ	.
=352	=352	=352	=352
16D/LL	8aa/]	8dd\)	.
16A/	.	.	.
16d/	8r	16r	.
16f/JJ	.	(16a\LL	.
8A\	[8aa/	16ff\	.
.	.	16ee\JJ	.
=353	=353	=353	=353
16D/LL	8aa/]	8dd\)	.
16A/	.	.	.
16d/	8r	16r	.
16f/JJ	.	(16a\LL	.
8A\	[8aa/	16ff\	.
.	.	16dd\JJ	.
=354	=354	=354	=354
16AA/LL	8aa/]	8ee\)	.
16A/	.	.	.
16c#/	8r	16r	.
16e/JJ	.	(16a\LL	.
8A\	[8aa/	16gg\	.
.	.	16ff\JJ	.
=355	=355	=355	=355
16AA/LL	8aa/]	8ee\)	.
16A/	.	.	.
16c#/	8r	16r	.
16e/JJ	.	(16a\LL	.
8A\	[8aa/	16gg\	.
.	.	16ff\JJ	.
=356	=356	=356	=356
16AA/LL	8aa/]	8ee\)	.
16A/	.	.	.
16c#/	8r	16r	.
16e/JJ	.	(16a\LL	.
8A\	[8aa/	16gg\	.
.	.	16ff\JJ	.
=357	=357	=357	=357
16AA/LL	8aa/]	8ee\)	.
16A/	.	.	.
16c#/	8r	16r	.
16e/JJ	.	(16a\LL	.
8A\	[8aa/	16gg\	.
.	.	16ee\JJ	.
=358	=358	=358	=358
16D/LL	8aa/]	8ff\)	.
16A/	.	.	.
16d/	4r	16r	.
16f/JJ	.	(16dd\LL	p
8A\	.	16aa\	.
.	.	16ddd\JJ	.
*	*v	*v	*
=359	=359	=359
*^	*	*
16G/LL	4.G\	8bb-'\)	.
[16d/JJ	.	.	.
4d/] &(4g/&)	.	16r	.
.	.	(16b-\LL	.
.	.	16dd\	.
.	.	16bb-\JJ	.
=360	=360	=360	=360
16E-/LL	4.E-\	8gg'\)	.
16B-/JJ	.	.	.
4B-/ &(4e-/&)	.	16r	.
.	.	(16g\LL	.
.	.	16b-\	.
.	.	16gg\JJ	.
=361	=361	=361	=361
16C#/LL	4.C#\	8een'\)	.
[16A/JJ	.	.	.
4A/] &(4c#/&)	.	16r	.
.	.	(16e\LL	.
.	.	16a\	.
.	.	16ee\JJ	.
=362	=362	=362	=362
16D/LL	4.D\	8ff'\)	.
[16A/JJ	.	.	.
4A/] &(4d/&)	.	16r	.
.	.	(16f\LL	.
.	.	16a\	.
.	.	16ff\JJ	.
=363	=363	=363	=363
16AA/LL	4.AA\	8dd'\)	p
[16F/ 16A/JJ	.	.	.
4F/] &(4A/&)	.	16r	.
.	.	(16d\LL	.
.	.	16a\	.
.	.	16dd\JJ	.
*v	*v	*	*
=364	=364	=364
16AA/LL	8cc#'\)	.
16En/	.	.
16G/	16r	.
[16A/JJ	(16c#/LL	.
8E/ 8G/ 8A/]	16a/	.
.	16cc#/JJ	.
=365	=365	=365
16DD\LL	8dd'\)	f
16D\	.	.
16F\	8r	.
&(16A\JJ&)	.	.
8d'\	(16f/LL	.
.	16a/JJ	.
=366	=366	=366
4.r	16dd\LL	.
.	16ff\	.
.	16aa\	.
.	16ff\	.
.	16ddd\	.
.	16aa\JJ	.
=367	=367	=367
*^	*	*
16G/LL	4.G\	8bb-'\)	p
[16d/JJ	.	.	.
4d/] &(4g/&)	.	16r	.
.	.	(16b-\LL	.
.	.	16dd\	.
.	.	16bb-\JJ	.
=368	=368	=368	=368
16E-/LL	4.E-\	8gg'\)	.
[16B-/JJ	.	.	.
4B-/] &(4e-/&)	.	16r	.
.	.	(16g\LL	.
.	.	16b-\	.
.	.	16gg\JJ	.
=369	=369	=369	=369
16C#/LL	4.C#\	8een'\)	.
[16A/JJ	.	.	.
4A/] &(4c#/&)	.	16r	.
.	.	(16e\LL	.
.	.	16a\	.
.	.	16ee\JJ	.
=370	=370	=370	=370
16D/LL	4.D\	8ff'\)	.
[16A/JJ	.	.	.
4A/] &(4d/&)	.	16r	.
.	.	(16f\LL	.
.	.	16a\	.
.	.	16ff\JJ	.
=371	=371	=371	=371
16AA/LL	4.AA\	8dd'\)	p
[16F/JJ	.	.	.
4F/] &(4A/&)	.	16r	.
.	.	(16d\LL	.
.	.	16a\	.
.	.	16dd\JJ	.
*v	*v	*	*
=372	=372	=372
16AA/LL	8cc#'\)	.
16E/	.	.
16G/	16r	.
[16A/JJ	(16c#/LL	.
8E/ 8G/ 8A/]	16a/	.
.	16cc#/JJ	.
=373	=373	=373
16D\LL	16dd'\)	f
16F\	32r	.
.	32a\	.
16A\	(4aa\	.
16d\JJ	.	.
8r	.	.
=374	=374	=374
4.r	16gg#\LL	>
.	16ggn\	.
.	16ff#\	.
.	16ffn\	.
.	16ee\	.
.	16ee-\JJ	.
=375	=375	=375
*^	*	*
16AA/LL	4.AA\	8dd'\)	p
[16F/JJ	.	.	.
4F/] &(4A/&)	.	16r	.
.	.	(16d\LL	.
.	.	16a\	.
.	.	16dd\JJ	.
*v	*v	*	*
=376	=376	=376
16AA/LL	8cc#'\)	.
16E/	.	.
16G/	16r	.
[16A/JJ	(16c#/LL	.
8E/ 8G/ 8A/]	16a/	.
.	16cc#'/JJ	.
=377	=377	=377
16D\LL	16dd'\)	f
16F\	32r	.
.	32dd\	.
16A\	(4ddd\	.
16d\JJ	.	.
8r	.	.
=378	=378	=378
4.r	16ccc#\LL	>
.	16cccn\	.
.	16bbn\	.
.	16bb-\	.
.	16aa\	.
.	16gg#\JJ	.
=379	=379	=379
*^	*	*
16AA/LL	4.AA\	8aa'\)	p
[16F/JJ	.	.	.
4F/] &(4A/&)	.	16r	.
.	.	(16d\LL	.
.	.	16a\	.
.	.	16dd\JJ	.
*v	*v	*	*
=380	=380	=380
16AA/LL	8cc#'\)	.
16E/	.	.
16G/	16r	.
[16A/JJ	(16c#/LL	.
8E/ 8G/ 8A/]	16a/	.
.	16cc#/JJ	.
=381	=381	=381
8D\ 8F\	16dd'\)	.
.	16dd\	.
*clefG2	*	*
[4ff\	([4fff\	ff
=382	=382	=382
16ff\LL]	16fff\LL]	.
16ee\	16eee\	.
16ee-\	16eee-\	.
16dd\	16ddd\	.
16cc#\	16ccc#\	.
16ccn\JJ	16cccn\JJ	.
=383	=383	=383
24bn/LL	24bbn\LL	.
24b-/	24bb-\	.
24a/JJ	24aa\JJ	.
24g#/LL	24gg#\LL	.
24gn/	24ggn\	.
24f#/JJ	24ff#\JJ	.
32fn/LLL	32ffn\LLL	.
32e/	32ee\	.
32e-/	32ee-\	.
32d/JJJ	32dd\JJJ	.
=384	=384	=384
&(8a'/&)	8aa'\)	.
8r	8r	.
8A'/	8a'\	.
*clefF4	*	*
=385	=385	=385
16D/LL	8dd'\	p
16A/	.	.
16d/	16r	.
16f/JJ	(16a\LL	.
8A\	16ff\	.
.	16dd\JJ	.
=386	=386	=386
16AA/LL	8cc#'\)	.
16A/	.	.
16c#/	16r	.
16e/JJ	(16a\LL	.
8A\	16ee\	.
.	16cc#\JJ	.
=387	=387	=387
16D/LL	8dd'\)	.
16A/	.	.
16d/	16r	.
16f/JJ	(16aa\LL	.
8A\	16fff\	.
.	16ddd\JJ	.
=388	=388	=388
16AA/LL	8ccc#\)	.
16A/	.	.
16c#/	16r	.
16e/JJ	(16aa\LL	.
8A\	16eee\	.
.	16ccc#\JJ	.
=389	=389	=389
16D/LL	8ddd'\)	.
16A/	.	.
16d/	16r	.
16f/JJ	(16a\LL	.
8A\	16ff\	.
.	16dd\JJ	.
=390	=390	=390
16AA/LL	8cc#'\)	.
16A/	.	.
16c#/	16r	.
16e/JJ	(16a\LL	.
8A\	16ee\	.
.	16cc#\JJ	.
=391	=391	=391
16D/LL	8dd'\)	.
16A/	.	.
16d/	16r	.
16f/JJ	(16aa\LL	.
8A\	16fff\	.
.	16ddd\JJ	.
=392	=392	=392
16AA/LL	8ccc#'\)	.
16A/	.	.
16c#/	16r	.
16e/JJ	(16aa\LL	.
8A\	16eee\	.
.	16ccc#\JJ	.
=393	=393	=393
16D/LL	8ddd'\)	.
16A/	.	.
16d/	16r	.
16f/JJ	(16fff'\LL	.
&(8A\&)	16aa\	.
.	16ddd\JJ	.
=394	=394	=394
16D/LL	8ff'\)	.
16A/	.	.
16d/	16r	.
16f/JJ	(16ddd\LL	.
&(8A\&)	16ff\	.
.	16aa\JJ	.
=395	=395	=395
16D/LL	8dd'\)	.
16A/	.	.
16d/	16r	.
16f/JJ	(16aa\LL	.
&(8A\&)	16dd\	.
.	16ff\JJ	.
=396	=396	=396
16D/LL	8a'\)	.
16A/	.	.
16d/	16r	.
16f/JJ	(16ff\LL	.
&(8A\&)	16a\	.
.	16dd\JJ	.
=397	=397	=397
8D\	16f/LL)	p
.	16dd/	.
8r	16a/	.
.	16f/	.
8r	16d/	.
.	16A/JJ	.
=398	=398	=398
*^	*	*
16F/LL	8.r	4.r	.
16d/	.	.	.
16A/	.	.	.
16F/JJ	16r	.	.
16D/	16AA\LL	.	.
16r	16FF\JJ	.	.
=399	=399	=399	=399
8.r	8.DD\	8.r	.
*v	*v	*	*
=	=	=
*-	*-	*-
!!!ENC: Craig Stuart Sapp
!!!END: 2008/11/11/
